X:22
T:Nail That Catfish to a Tree
C:Steve Rosen
S:Steve Rosen, http://nailthatcatfish.tripod.com/catfishmed.mp3
U: S = head-sml   % small filled note-head
U: Q = head-smlo  % small open note-head
G:Key: G
M:C|
N:See http://nailthatcatfish.tripod.com/nailthatcat.html for T-shirts and more.
Z:abc-transcription Josh Larios <hades@elsewhere.org>, 2017.02.13
Z:abc-copyright This transcription is licensed under a Creative Commons Attribution-ShareAlike 4.0 International License.
K:G
[P:A]y0|: (3DEF |"G"GSG BSG ASG BSG | cB A2 B4 | "D"AB AG FG AB | AG FD (3EFE DE | 
| "G"G2 BSG ASG BSG | cB A2 B4 | "D"AB AG FD EF | "G"G2-GG G2 :|
[P:B]y|: D2 | "C"[CE]4 [DA]4 | [Ec]2-[Ec][Ec] [Ec]2 [Ec][Ec] | "D"AB AG FG AB | AG FD (3EFE D2 | "C"[CE]4 [DA]4 |
| [Ec]4 [Ec]2-[Ec]c |1 "D"AB AG FD EF | "G"[GQG,]4 [GSG,]2 :|2 "D"d2 c2 BG A2 | "G"[GSB]2-[GSB][GSB] [GSB]2 |]
%%center © Steve Rosen

